src/icons/skipped.svg

<svg viewBox="0 0 16 13" xmlns="http://www.w3.org/2000/svg">
<path d="M3.24972 8.54297H0.745838C0.337403 8.54297 0 8.88037 0 9.28881V11.8104C0 12.2189 0.337403 12.5563 0.745838 12.5563H3.26748C3.67592 12.5563 4.01332 12.2189 4.01332 11.8104V9.28881C3.99556 8.88037 3.65816 8.54297 3.24972 8.54297Z" />
<path d="M15.2364 8.54297H12.7325C12.3241 8.54297 11.9867 8.88037 11.9867 9.28881V11.8104C11.9867 12.2189 12.3241 12.5563 12.7325 12.5563H15.2542C15.6626 12.5563 16 12.2189 16 11.8104V9.28881C15.9823 8.88037 15.6449 8.54297 15.2364 8.54297Z" />
<path d="M9.25192 8.54297H6.73027C6.32184 8.54297 5.98444 8.88037 5.98444 9.28881V11.8104C5.98444 12.2189 6.32184 12.5563 6.73027 12.5563H9.25192C9.66035 12.5563 9.99775 12.2189 9.99775 11.8104V9.28881C9.98 8.88037 9.66035 8.54297 9.25192 8.54297ZM9.25192 11.7927H6.73027V9.27105H9.25192V11.7927Z" />
<path d="M14.6504 6.71254L15.5383 2.37958L13.9401 2.91232C13.3363 2.09545 12.555 1.42064 11.6493 0.923418C10.5483 0.319645 9.28748 0 7.99114 0C4.01334 0 0.781372 3.01887 0.781372 6.71254C0.781372 7.01443 1.02998 7.26304 1.33187 7.26304C1.63376 7.26304 1.88237 7.01443 1.88237 6.71254C1.88237 3.62264 4.61711 1.101 7.99114 1.101C9.89125 1.101 11.6671 1.91787 12.8213 3.26748L11.3297 3.78246L14.6504 6.71254Z" />
</svg>

<svg viewBox="0 0 16 13" xmlns="http://www.w3.org/2000/svg"><path d="M3.25 8.543H.746A.75.75 0 000 9.289v2.521a.75.75 0 00.746.746h2.521a.75.75 0 00.746-.746V9.29a.778.778 0 00-.763-.746zM15.236 8.543h-2.504a.75.75 0 00-.745.746v2.521a.75.75 0 00.745.746h2.522A.75.75 0 0016 11.81V9.29a.778.778 0 00-.764-.746zM9.252 8.543H6.73a.75.75 0 00-.746.746v2.521a.75.75 0 00.746.746h2.522a.75.75 0 00.746-.746V9.29c-.018-.409-.338-.746-.746-.746zm0 3.25H6.73V9.27h2.522v2.522zM14.65 6.713l.888-4.333-1.598.532A7.066 7.066 0 0011.65.923 7.612 7.612 0 007.99 0C4.013 0 .781 3.019.781 6.713c0 .301.249.55.55.55.303 0 .551-.249.551-.55 0-3.09 2.735-5.612 6.11-5.612 1.9 0 3.675.817 4.83 2.166l-1.492.515 3.32 2.93z"/></svg>
